X:956
T:Reel 956
M:4/4
K:Dmaj
L:1/8
dc|A>D (3DDD AGFG|A>D (3DDD D2dB|A>D (3DDD AGFG| (3EFE =cA G2:|FE|DddB AFAF|DFdB A2FA|dedB ABAF| (3EFE =cA G2FE|DddB AFAF|DddB A2FA|DEFA BABc|dBAG FDD|g|fdde fdad|fddf egge|fdde fgaf|egaf e2AG|Fdde fefg|fddf e2ag| (3fga ge fdec|dBAG FDDG|
